-----BEGIN PGP MESSAGE-----

hQIMAwAAAAAAAAAAAQ//a3LdXpoLRvtQueZCcGiGRtuszOtY4IOMwYxNKVD5gOVI
TCOuqfz3WcvRut1Rryb786q6qOreJVIfWdAQexif2xnvqvAtZblr2LERxFEe8Mjn
YF6cdSjzB8hZrfbuC+h8lVSyXCLI/tnOW1r/nZbAAnja7eBZfqQxAeJSNoQuNI56
zSk8xt4HpdgaKWTauI3uetDuwugqYy2B9iSxy+jhocJkaP4pKZigHfs4GOFFhnqy
6VCqXJEjtpmAUVYh9asK0UXjmYcTATLkALp44hr/8B98y7eDagoVsfJtYs0qLu6d
JI6Xrnyd7z6wc2XPmFI8DOXl88gIQO26r3JN0ffMGjd3prinaY8Iw1kbTi2cZTRv
fVaKKfQ0DekWkW1F7OPMaxKcPBnjqfLnXTdY7wh0aZIQAttmZbj7DbWlPl/aXFDk
O+jPXhUJ94wYY+sRuOLgGJgAWPryRsxzHGe73sStZzcrn4fyNQ6Vj70fRc+S5wZe
7kp48ovwRC4ITr9iVh1k1GHwrCsHMjzxiKHov6KkyU6WMDaSToIfInKDg56mVI3D
ajZz9ESJ8c3nbe4fJlTzqnYH473aofCfi5SxUwUaPlHDpWMtG8vMmNiKMaP/QY/2
J5DKVDLfmZ3K1I0c4OnaqOpVRbS+3Acg7yiCV6QODolL8DDNZGmSs4d6VzlVRy/S
wFUBY9Ljd6nRx6uCKUJu7h+C0gDn7TWc2SdhN0kmmkrlALRPl8fAgW3owl0SvPIM
M9f7qhpNa1B911/ienH4FmLWdaiYModIxLN7orFx2XW/L75Wrnv3bZ6/pftcSIYQ
HlHyjKh+WyitkzhjPdIRLwwa2mv9lQl/j9vD9FhAEUp+/0K2aqN1ffVWnXvjwIk2
aZDeSbrlG43SXOuuPlaK5xhNdYAxQph0lkg49+yZAk6U71Z0LwZ2njNjpuG4+PMK
wkJObifq7GhYZphOqIIxSNwq/RCZ2lLV+Y+6xhIWIHRnLYDr+JtuO88YkEJrpRLV
8E7q2LoxpEPQYjSyrRFtzn3LFZMZdM+MCb1qRj6JxYj9emCLCGUy
=+oDk
-----END PGP MESSAGE-----
